icon/ir/rocket.svg

<svg viewBox="0 0 24 24" stroke-width="1.5" fill="none" xmlns="http://www.w3.org/2000/svg" height="1em" width="1em">
  <path d="M16.0614 10.4037L14 17L10 17L7.93865 10.4037C7.35085 8.52273 7.72417 6.47307 8.93738 4.92015L11.5272 1.6052C11.7674 1.29772 12.2326 1.29772 12.4728 1.6052L15.0626 4.92015C16.2758 6.47307 16.6491 8.52273 16.0614 10.4037Z" stroke="currentColor" stroke-linecap="round" stroke-linejoin="round"/>
  <path d="M10 20C10 22 12 23 12 23C12 23 14 22 14 20" stroke="currentColor" stroke-linecap="round" stroke-linejoin="round"/>
  <path d="M8.5 12.5C5 15 7 19 7 19L10 17" stroke="currentColor" stroke-linecap="round" stroke-linejoin="round"/>
  <path d="M15.9312 12.5C19.4312 15 17.4312 19 17.4312 19L14.4312 17" stroke="currentColor" stroke-linecap="round" stroke-linejoin="round"/>
  <path d="M12 11C10.8954 11 10 10.1046 10 9C10 7.89543 10.8954 7 12 7C13.1046 7 14 7.89543 14 9C14 10.1046 13.1046 11 12 11Z" stroke="currentColor" stroke-linecap="round" stroke-linejoin="round"/>
</svg>

<svg width="24" height="24" stroke-width="1.5" fill="none" xmlns="http://www.w3.org/2000/svg"><path d="M16.061 10.404 14 17h-4l-2.061-6.596a6 6 0 0 1 .998-5.484l2.59-3.315a.6.6 0 0 1 .946 0l2.59 3.315a6 6 0 0 1 .998 5.484ZM10 20c0 2 2 3 2 3s2-1 2-3M8.5 12.5C5 15 7 19 7 19l3-2M15.931 12.5c3.5 2.5 1.5 6.5 1.5 6.5l-3-2" stroke="currentColor" stroke-linecap="round" stroke-linejoin="round"/><path d="M12 11a2 2 0 1 1 0-4 2 2 0 0 1 0 4Z" stroke="currentColor" stroke-linecap="round" stroke-linejoin="round"/></svg>
